svg/logo/behance_line.svg

<svg xmlns="http://www.w3.org/2000/svg" width="24" height="24" viewBox="0 0 24 24"><g fill="none" fill-rule="evenodd"><path d="M24,0 L24,24 L0,24 L0,0 L24,0 Z M12.5935,23.2578 L12.5819,23.2595 L12.5109,23.295 L12.4919,23.2987 L12.4767,23.295 L12.4057,23.2595 C12.3958,23.2564 12.387,23.259 12.3821,23.2649 L12.378,23.2758 L12.3609,23.7031 L12.3659,23.7235 L12.3769,23.7357 L12.4805,23.8097 L12.4953,23.8136 L12.5071,23.8097 L12.6107,23.7357 L12.6233,23.7197 L12.6267,23.7031 L12.6096,23.2758 C12.6076,23.2657 12.601,23.2593 12.5935,23.2578 Z M12.8584,23.1453 L12.8445,23.1473 L12.6598,23.2397 L12.6499,23.2499 L12.6472,23.2611 L12.6651,23.6906 L12.6699,23.7034 L12.6784,23.7105 L12.8793,23.8032 C12.8914,23.8069 12.9022,23.803 12.9078,23.7952 L12.9118,23.7812 L12.8777,23.1665 C12.8753,23.1546 12.8674,23.147 12.8584,23.1453 Z M12.143,23.1473 C12.1332,23.1424 12.1222,23.1453 12.1156,23.1526 L12.1099,23.1665 L12.0758,23.7812 C12.0751,23.7927 12.0828,23.8019 12.0926,23.8046 L12.1083,23.8032 L12.3092,23.7105 L12.3186,23.7024 L12.3225,23.6906 L12.3404,23.2611 L12.3372,23.2485 L12.3278,23.2397 L12.143,23.1473 Z"/><path fill="#09244B" d="M8,5 C10.2091,5 12,6.79086 12,9 C12,10.1947 11.4762,11.2671 10.6458,12 C11.4762,12.7329 12,13.8053 12,15 C12,17.2091 10.2091,19 8,19 L4,19 C2.89543,19 2,18.1046 2,17 L2,7 C2,5.89543 2.89543,5 4,5 L8,5 Z M17.5,9 C20.1065,9 22,11.3682 22,14 C22,14.51285 21.613973,14.9355092 21.1166239,14.9932725 L21,15 L15.1397,15 C15.4981,16.2242 16.493,17 17.5,17 C18.5799,17 19.1922,16.489 19.7409,15.8491 C20.1003,15.4298 20.7317,15.3814 21.1509,15.7409 C21.5702,16.1003 21.6186,16.7317 21.2591,17.1509 L21.1532519,17.2721693 L21.1532519,17.2721693 L20.9243609,17.5184163 C20.2017143,18.2600163 19.1458,19 17.5,19 C14.8935,19 13,16.6318 13,14 C13,11.3682 14.8935,9 17.5,9 Z M8,13 L4,13 L4,17 L8,17 C9.10457,17 10,16.1046 10,15 C10,13.9456091 9.18412267,13.0818322 8.14926241,13.0054856 L8,13 Z M17.5,11 C16.493,11 15.4981,11.7758 15.1397,13 L19.8603,13 C19.5019,11.7758 18.507,11 17.5,11 Z M8,7 L4,7 L4,11 L8,11 C9.10457,11 10,10.1046 10,9 C10,7.89543 9.10457,7 8,7 Z M19,6 C19.5523,6 20,6.44772 20,7 C20,7.55228 19.5523,8 19,8 L16,8 C15.4477,8 15,7.55228 15,7 C15,6.44772 15.4477,6 16,6 L19,6 Z"/></g></svg>

<svg xmlns="http://www.w3.org/2000/svg" width="24" height="24"><g fill="none" fill-rule="evenodd"><path d="M24 0v24H0V0zM12.594 23.258l-.012.002-.071.035-.02.004-.014-.004-.071-.036c-.01-.003-.019 0-.024.006l-.004.01-.017.428.005.02.01.013.104.074.015.004.012-.004.104-.074.012-.016.004-.017-.017-.427c-.002-.01-.009-.017-.016-.018m.264-.113-.014.002-.184.093-.01.01-.003.011.018.43.005.012.008.008.201.092c.012.004.023 0 .029-.008l.004-.014-.034-.614c-.003-.012-.01-.02-.02-.022m-.715.002a.023.023 0 0 0-.027.006l-.006.014-.034.614c0 .012.007.02.017.024l.015-.002.201-.093.01-.008.003-.011.018-.43-.003-.012-.01-.01z"/><path fill="#09244B" d="M8 5a4 4 0 0 1 2.646 7A4 4 0 0 1 8 19H4a2 2 0 0 1-2-2V7a2 2 0 0 1 2-2zm9.5 4c2.607 0 4.5 2.368 4.5 5a1 1 0 0 1-.883.993L21 15h-5.86c.358 1.224 1.353 2 2.36 2 1.08 0 1.692-.511 2.24-1.15a1 1 0 1 1 1.52 1.3l-.107.122-.229.246C20.202 18.26 19.146 19 17.5 19c-2.607 0-4.5-2.368-4.5-5s1.893-5 4.5-5M8 13H4v4h4a2 2 0 0 0 .15-3.995zm9.5-2c-1.007 0-2.002.776-2.36 2h4.72c-.358-1.224-1.353-2-2.36-2M8 7H4v4h4a2 2 0 1 0 0-4m11-1a1 1 0 1 1 0 2h-3a1 1 0 1 1 0-2z"/></g></svg>
